azure-patterns/svg-microservice.svg

<svg xmlns="http://www.w3.org/2000/svg" viewBox="0 0 140 140"><path d="M140 64.7l-6.1-2.4c2.1-8.2 1.9-16.5-.3-24.3l6-2.6-4.6-10.7-6 2.6c-4.1-6.9-10-12.9-17.4-16.9l2.4-6.1L103.2 0l-2.4 6.1c-3.8-1-7.7-1.5-11.5-1.5-4.3 0-8.6.6-12.7 1.8L74 .4 63.2 5l2.6 6c-6.9 4.1-12.9 10-17 17.4l-6-2.4-4.3 10.8 6.1 2.4c-2.1 8.2-1.9 16.5.3 24.3l-6 2.6 4.6 10.7 6-2.6c4.1 6.9 10 12.9 17.4 16.9l-2.4 6.1 10.8 4.3 2.4-6.1c3.8 1 7.7 1.5 11.5 1.5 4.3 0 8.6-.6 12.7-1.8l2.6 6 10.7-4.6-2.6-6c6.9-4.1 12.9-10 17-17.4l6.1 2.4 4.3-10.8zm-24-3.3c-4.4 11-14.9 18.2-26.8 18.2-3.6 0-7.2-.7-10.7-2.1-7.2-2.9-12.8-8.3-15.8-15.4s-3.1-14.9-.3-22.1c4.4-11 14.9-18.2 26.8-18.2 3.6 0 7.2.7 10.7 2.1 7.2 2.9 12.8 8.3 15.8 15.4 3.1 7.1 3.2 15 .3 22.1z" fill="#0078D4"/><path d="M56.5 112.2l4.4-.1-.1-6.8-4.4.1c-.7-4.7-2.6-9-5.4-12.5l3.1-3.2-4.8-4.7-3.1 3.2c-3.6-2.7-8-4.5-12.7-5.1l-.1-4.4-6.8.1.1 4.4c-2.2.3-4.3.9-6.3 1.7-2.3.9-4.4 2.2-6.2 3.7L11 85.5l-4.7 4.8 3.2 3.1c-2.7 3.6-4.5 8-5.1 12.7l-4.4.1.1 6.8 4.4-.1c.7 4.7 2.6 9 5.4 12.5l-3.1 3.2 4.8 4.7 3.1-3.2c3.6 2.7 8 4.5 12.7 5.1l.1 4.4 6.8-.1-.1-4.4c2.2-.3 4.3-.9 6.3-1.7 2.3-.9 4.4-2.2 6.2-3.7l3.2 3.1 4.7-4.8-3.2-3.1c2.8-3.7 4.6-8 5.1-12.7zm-21 9c-1.5.6-3.2 1-4.8 1-3.5 0-6.8-1.3-9.3-3.7-2.5-2.4-3.9-5.7-4-9.2-.1-5.4 3.1-10.2 8.1-12.3 1.5-.6 3.2-1 4.8-1 3.5 0 6.8 1.3 9.3 3.7 2.5 2.4 3.9 5.7 4 9.2 0 5.5-3.1 10.3-8.1 12.3z" fill="#50E6FF"/></svg>

<svg xmlns="http://www.w3.org/2000/svg" viewBox="0 0 140 140">
                                
                            
<path d="M140 64.7L133.9 62.3C136 54.1 135.8 45.8 133.6 38L139.6 35.4L135 24.7L129 27.3C124.9 20.4 119 14.4 111.6 10.4L114 4.3L103.2 0L100.8 6.1C97 5.1 93.1 4.6 89.3 4.6C85 4.6 80.7 5.2 76.6 6.4L74 0.4L63.2 5L65.8 11C58.9 15.1 52.9 21 48.8 28.4L42.8 26L38.5 36.8L44.6 39.2C42.5 47.4 42.7 55.7 44.9 63.5L38.9 66.1L43.5 76.8L49.5 74.2C53.6 81.1 59.5 87.1 66.9 91.1L64.5 97.2L75.3 101.5L77.7 95.4C81.5 96.4 85.4 96.9 89.2 96.9C93.5 96.9 97.8 96.3 101.9 95.1L104.5 101.1L115.2 96.5L112.6 90.5C119.5 86.4 125.5 80.5 129.6 73.1L135.7 75.5L140 64.7ZM116 61.4C111.6 72.4 101.1 79.6 89.2 79.6C85.6 79.6 82 78.9 78.5 77.5C71.3 74.6 65.7 69.2 62.7 62.1C59.7 55 59.6 47.2 62.4 40C66.8 29 77.3 21.8 89.2 21.8C92.8 21.8 96.4 22.5 99.9 23.9C107.1 26.8 112.7 32.2 115.7 39.3C118.8 46.4 118.9 54.3 116 61.4Z" fill="#0078D4"></path>
<path d="M56.5 112.2L60.9 112.1L60.8 105.3L56.4 105.4C55.7 100.7 53.8 96.4 51 92.9L54.1 89.7L49.3 85L46.2 88.2C42.6 85.5 38.2 83.7 33.5 83.1L33.4 78.7L26.6 78.8L26.7 83.2C24.5 83.5 22.4 84.1 20.4 84.9C18.1 85.8 16 87.1 14.2 88.6L11 85.5L6.3 90.3L9.5 93.4C6.8 97 5 101.4 4.4 106.1L0 106.2L0.1 113L4.5 112.9C5.2 117.6 7.1 121.9 9.9 125.4L6.8 128.6L11.6 133.3L14.7 130.1C18.3 132.8 22.7 134.6 27.4 135.2L27.5 139.6L34.3 139.5L34.2 135.1C36.4 134.8 38.5 134.2 40.5 133.4C42.8 132.5 44.9 131.2 46.7 129.7L49.9 132.8L54.6 128L51.4 124.9C54.2 121.2 56 116.9 56.5 112.2ZM35.5 121.2C34 121.8 32.3 122.2 30.7 122.2C27.2 122.2 23.9 120.9 21.4 118.5C18.9 116.1 17.5 112.8 17.4 109.3C17.3 103.9 20.5 99.1 25.5 97C27 96.4 28.7 96 30.3 96C33.8 96 37.1 97.3 39.6 99.7C42.1 102.1 43.5 105.4 43.6 108.9C43.6 114.4 40.5 119.2 35.5 121.2Z" fill="#50E6FF"></path>
</svg>
